!!! OTL: Berkowitz615
!!! Chapter: 1
!!! Section: V
!!! Page: 157
!!! Mode: 
!!! Encoder: AR
**kern
*staff1
=1-
!!pagebreak:original
*clefF4
*k[]
*C:
*M6/4
4E-\
4c\
4B\
2D\
4C#/
=2
2.F#\
4r
4En\
4G\
=3
2.BB-/
2AA-/
4Fn\
=4
2.An\
2.r
=5
2.B\
4r
4D\
4E-\
=6
!!linebreak:original
2c\
4d-\
2A-\
4r
=7
4B-\
4G\
4E\
2.F#\
=8
2.AA/
2Fn\
4r
=9
!!linebreak:original
2.E-\
2c\
4B\
=10
2D\
4C#/
2.F#\
=11
2.E\
2.G\
=12
[2.BB-/
2BB-/]
4r
==
*-
